src/components/content/Icon/icons/money.svg

<svg width="24" height="24" viewBox="0 0 24 24" fill="none" xmlns="http://www.w3.org/2000/svg">
<path d="M20.8004 4H3.20039C2.72039 4 2.40039 4.32 2.40039 4.8V14.4C2.40039 14.88 2.72039 15.2 3.20039 15.2H20.8004C21.2804 15.2 21.6004 14.88 21.6004 14.4V4.8C21.6004 4.32 21.2804 4 20.8004 4ZM4.40039 11.2C4.24039 11.2 4.08039 11.2 4.00039 11.28V7.92C4.08039 8 4.24039 8 4.40039 8C5.52039 8 6.40039 7.12 6.40039 6C6.40039 5.84 6.40039 5.68 6.32039 5.6H17.6004C17.6004 5.68 17.6004 5.84 17.6004 6C17.6004 7.12 18.4804 8 19.6004 8C19.7604 8 19.9204 8 20.0004 7.92V11.2C19.9204 11.2 19.7604 11.12 19.6004 11.12C18.4804 11.12 17.6004 12 17.6004 13.12C17.6004 13.28 17.6004 13.44 17.6804 13.52H6.32039C6.40039 13.52 6.40039 13.36 6.40039 13.2C6.40039 12.08 5.52039 11.2 4.40039 11.2ZM9.60039 9.6C9.60039 8.24 10.6404 7.2 12.0004 7.2C13.3604 7.2 14.4004 8.24 14.4004 9.6C14.4004 10.96 13.3604 12 12.0004 12C10.6404 12 9.60039 10.96 9.60039 9.6ZM4.00039 17.6V16.8H20.0004V17.6C20.0004 18.08 19.6804 18.4 19.2004 18.4H4.80039C4.32039 18.4 4.00039 18.08 4.00039 17.6ZM5.92039 20.8V20H17.9204V20.8C17.9204 21.28 17.6004 21.6 17.1204 21.6H6.72039C6.24039 21.6 5.92039 21.28 5.92039 20.8Z" fill="#0B301A"/>
</svg>

<svg xmlns="http://www.w3.org/2000/svg" width="24" height="24" fill="none" viewBox="0 0 24 24"><path fill="#0b301a" d="M20.8 4H3.2c-.48 0-.8.32-.8.8v9.6c0 .48.32.8.8.8h17.6c.48 0 .8-.32.8-.8V4.8c0-.48-.32-.8-.8-.8M4.4 11.2c-.16 0-.32 0-.4.08V7.92c.08.08.24.08.4.08 1.12 0 2-.88 2-2 0-.16 0-.32-.08-.4H17.6V6c0 1.12.88 2 2 2 .16 0 .32 0 .4-.08v3.28c-.08 0-.24-.08-.4-.08-1.12 0-2 .88-2 2 0 .16 0 .32.08.4H6.32c.08 0 .08-.16.08-.32 0-1.12-.88-2-2-2m5.2-1.6c0-1.36 1.04-2.4 2.4-2.4s2.4 1.04 2.4 2.4S13.36 12 12 12s-2.4-1.04-2.4-2.4m-5.6 8v-.8h16v.8c0 .48-.32.8-.8.8H4.8c-.48 0-.8-.32-.8-.8m1.92 3.2V20h12v.8c0 .48-.32.8-.8.8H6.72c-.48 0-.8-.32-.8-.8"/></svg>
